assets/sonr-icons/microchip.svg

<svg xmlns="http://www.w3.org/2000/svg" width="24" height="24" fill="none"><path fill="currentColor" d="M20 8a1 1 0 0 1 0 2h-1v4h1a1 1 0 0 1 0 2h-1.018l-.013.195c-.032.395-.104.788-.296 1.167a3 3 0 0 1-1.311 1.311c-.379.193-.772.264-1.167.296q-.095.008-.195.013V20a1 1 0 0 1-2 0v-1h-4v1a1 1 0 0 1-2 0v-1.018l-.195-.013c-.395-.032-.788-.104-1.167-.296a3 3 0 0 1-1.311-1.311c-.193-.379-.264-.772-.296-1.167L5.018 16H4a1 1 0 0 1 0-2h1v-4H4a1 1 0 0 1 0-2h1.018l.013-.195c.032-.395.104-.788.296-1.167a3 3 0 0 1 1.311-1.311c.379-.193.772-.264 1.167-.296q.094-.008.195-.013V4a1 1 0 0 1 2 0v1h4V4a1 1 0 0 1 2 0v1.018l.195.013c.395.032.788.104 1.167.296a3 3 0 0 1 1.311 1.311c.193.379.264.772.296 1.167q.008.094.013.195zM7.968 7.024c-.271.022-.372.06-.421.085a1 1 0 0 0-.437.437c-.026.05-.063.15-.085.421a17 17 0 0 0-.024 1.232v5.6c0 .577.001.949.024 1.232.022.271.06.372.085.422.096.188.249.341.437.437.05.026.15.063.421.085.284.023.655.024 1.232.024h5.6c.577 0 .949-.001 1.232-.024.271-.023.372-.06.422-.085.188-.096.341-.249.437-.437.025-.049.063-.15.085-.422.023-.283.024-.655.024-1.232v-5.6c0-.577-.001-.949-.024-1.232-.023-.271-.06-.372-.085-.421a1 1 0 0 0-.437-.437c-.05-.026-.15-.063-.422-.085A17 17 0 0 0 14.8 7H9.2c-.577 0-.949.001-1.232.024"/><path fill="currentColor" d="M10 11a1 1 0 0 1 1-1h2a1 1 0 0 1 1 1v2a1 1 0 0 1-1 1h-2a1 1 0 0 1-1-1z"/></svg>

<svg xmlns="http://www.w3.org/2000/svg" width="24" height="24" fill="none" viewBox="0 0 24 24"><path fill="#000" d="M20 8C20.552 8 21 8.448 21 9C21 9.552 20.552 10 20 10H19V14H20C20.552 14 21 14.448 21 15C21 15.552 20.552 16 20 16H18.982C18.978 16.067 18.974 16.132 18.969 16.195C18.937 16.59 18.865 16.983 18.673 17.362C18.386 17.927 17.927 18.386 17.362 18.673C16.983 18.866 16.59 18.937 16.195 18.969C16.132 18.974 16.067 18.979 16 18.982V20C16 20.552 15.552 21 15 21C14.448 21 14 20.552 14 20V19H10V20C10 20.552 9.552 21 9 21C8.448 21 8 20.552 8 20V18.982C7.933 18.978 7.868 18.974 7.805 18.969C7.41 18.937 7.017 18.865 6.638 18.673C6.073 18.386 5.614 17.927 5.327 17.362C5.134 16.983 5.063 16.59 5.031 16.195C5.026 16.132 5.021 16.067 5.018 16H4C3.448 16 3 15.552 3 15C3 14.448 3.448 14 4 14H5V10H4C3.448 10 3 9.552 3 9C3 8.448 3.448 8 4 8H5.018C5.022 7.933 5.026 7.868 5.031 7.805C5.063 7.41 5.135 7.017 5.327 6.638C5.614 6.073 6.073 5.614 6.638 5.327C7.017 5.134 7.41 5.063 7.805 5.031C7.868 5.026 7.932 5.021 8 5.018V4C8 3.448 8.448 3 9 3C9.552 3 10 3.448 10 4V5H14V4C14 3.448 14.448 3 15 3C15.552 3 16 3.448 16 4V5.018C16.067 5.022 16.132 5.026 16.195 5.031C16.59 5.063 16.983 5.135 17.362 5.327C17.927 5.614 18.386 6.073 18.673 6.638C18.866 7.017 18.937 7.41 18.969 7.805C18.974 7.868 18.979 7.932 18.982 8H20ZM7.968 7.024C7.697 7.046 7.596 7.084 7.547 7.109C7.359 7.205 7.206 7.358 7.11 7.546C7.084 7.596 7.047 7.696 7.025 7.967C7.002 8.251 7.001 8.622 7.001 9.199V14.799C7.001 15.376 7.002 15.748 7.025 16.031C7.047 16.302 7.085 16.403 7.11 16.453C7.206 16.641 7.359 16.794 7.547 16.89C7.597 16.916 7.697 16.953 7.968 16.975C8.252 16.998 8.623 16.999 9.2 16.999H14.8C15.377 16.999 15.749 16.998 16.032 16.975C16.303 16.952 16.404 16.915 16.454 16.89C16.642 16.794 16.795 16.641 16.891 16.453C16.916 16.404 16.954 16.303 16.976 16.031C16.999 15.748 17 15.376 17 14.799V9.199C17 8.622 16.999 8.25 16.976 7.967C16.953 7.696 16.916 7.595 16.891 7.546C16.795 7.358 16.642 7.205 16.454 7.109C16.404 7.083 16.304 7.046 16.032 7.024C15.748 7.001 15.377 7 14.8 7H9.2C8.623 7 8.251 7.001 7.968 7.024Z"/><path fill="#000" d="M10 11C10 10.448 10.448 10 11 10H13C13.552 10 14 10.448 14 11V13C14 13.552 13.552 14 13 14H11C10.448 14 10 13.552 10 13V11Z"/></svg>
